assets/flags-color/No.svg

<svg xmlns="http://www.w3.org/2000/svg" viewBox="0 0 512 512"><path fill="#ff4b55" d="M0 0h512v512H0z"/><path fill="#f5f5f5" d="M512 211.862H229.517V0h-88.276v211.862H0v88.276h141.241V512h88.276V300.138H512z"/><path fill="#41479b" d="M512 229.517H211.862V0h-52.965v229.517H0v52.966h158.897V512h52.965V282.483H512z"/></svg>

<svg xmlns="http://www.w3.org/2000/svg" x="0" y="0" enable-background="new 0 0 512 512" version="1.1" viewBox="0 0 512 512" xml:space="preserve"><path fill="#FF4B55" d="M0 0H512V512H0z"/><path fill="#F5F5F5" d="M512 211.862 229.517 211.862 229.517 0 141.241 0 141.241 211.862 0 211.862 0 300.138 141.241 300.138 141.241 512 229.517 512 229.517 300.138 512 300.138z"/><path fill="#41479B" d="M512 229.517 211.862 229.517 211.862 0 158.897 0 158.897 229.517 0 229.517 0 282.483 158.897 282.483 158.897 512 211.862 512 211.862 282.483 512 282.483z"/></svg>
